X: 10620
T: Dowd's Favourite
R: reel
M: 4/4
K: Gdorian
|:DGGA BGAF|DF F/F/F CFA,F|DGGA B/B/B Bd|cAfA AGGF:|
B2dB FBdB|FBdB cAFA|B2dB FBdB|cBAc BGGA|
B/c/dBd c/c/c cd|B/B/B dB cAFA|GBAc Bdca|gedA BGG2||
gd d/d/d gbag|fc c/c/c fgaf|gd d/d/d gbag|fdcA BGG2|
gd d/d/d gbag|fc c/c/c fgaA|B2 c/B/A Ba g/f/e|fdcA BGGF||

